X: 39262
T: Tailgating The Minister
R: reel
M: 4/4
K: Gmajor
|:fgBG EGBd|c2BG AGEF|G2GF GBde|A2AG FABd|
fgBG EGBd|c2BG AGEF|G2GF GABd|AGFA GABd:|
|:c4 ABBB|AGFG AGAB|cEGc BdBG|AGFG ABde|
cEGc BdBG|DGAG FGAB|c/B/Acd ABBB|1 AGFG ABde:|2 AGFA GABd||

